src/images/icons/arrow-right.svg

<svg width="7" height="12" viewBox="0 0 7 12" fill="none" xmlns="http://www.w3.org/2000/svg">
<path d="M6.55 5.5749C6.55 5.70824 6.525 5.83757 6.475 5.9629C6.425 6.08824 6.35833 6.19224 6.275 6.2749L1.675 10.8749C1.49167 11.0582 1.25833 11.1499 0.974999 11.1499C0.691666 11.1499 0.458333 11.0582 0.275 10.8749C0.0916663 10.6916 0 10.4582 0 10.1749C0 9.89157 0.0916663 9.65824 0.275 9.4749L4.175 5.5749L0.275 1.6749C0.0916663 1.49157 0 1.25824 0 0.974902C0 0.691568 0.0916663 0.458237 0.275 0.274903C0.458333 0.0915699 0.691666 -9.82285e-05 0.974999 -9.82285e-05C1.25833 -9.82285e-05 1.49167 0.0915699 1.675 0.274903L6.275 4.8749C6.375 4.9749 6.446 5.08324 6.488 5.1999C6.53 5.31657 6.55067 5.44157 6.55 5.5749Z" fill="#111111"/>
</svg>

<svg width="7" height="12" fill="none" xmlns="http://www.w3.org/2000/svg"><path d="M6.55 5.575c0 .133-.025.263-.075.388a.904.904 0 0 1-.2.312l-4.6 4.6a.948.948 0 0 1-.7.275.948.948 0 0 1-.7-.275.948.948 0 0 1-.275-.7c0-.283.092-.517.275-.7l3.9-3.9-3.9-3.9A.948.948 0 0 1 0 .975c0-.283.092-.517.275-.7A.948.948 0 0 1 .975 0c.283 0 .517.092.7.275l4.6 4.6c.1.1.171.208.213.325.042.117.063.242.062.375z" fill="#111"/></svg>
